assets/icons/showers.svg

<?xml version="1.0" encoding="UTF-8" standalone="no"?>
<svg
   viewBox="0 0 24 24"
   height="24"
   id="svg7384"
   version="1.1"
   width="24"
   sodipodi:docname="showers.svg"
   inkscape:version="1.2 (1:1.2.1+202207142221+cd75a1ee6d)"
   xmlns:inkscape="http://www.inkscape.org/namespaces/inkscape"
   xmlns:sodipodi="http://sodipodi.sourceforge.net/DTD/sodipodi-0.dtd"
   xmlns="http://www.w3.org/2000/svg"
   xmlns:svg="http://www.w3.org/2000/svg"
   xmlns:rdf="http://www.w3.org/1999/02/22-rdf-syntax-ns#"
   xmlns:cc="http://creativecommons.org/ns#"
   xmlns:dc="http://purl.org/dc/elements/1.1/">
  <sodipodi:namedview
     id="namedview21"
     pagecolor="#ffffff"
     bordercolor="#666666"
     borderopacity="1.0"
     inkscape:pageshadow="2"
     inkscape:pageopacity="0.0"
     inkscape:pagecheckerboard="0"
     showgrid="true"
     width="24px"
     inkscape:zoom="27.999943"
     inkscape:cx="16.500034"
     inkscape:cy="12.910741"
     inkscape:window-width="1850"
     inkscape:window-height="1016"
     inkscape:window-x="0"
     inkscape:window-y="0"
     inkscape:window-maximized="1"
     inkscape:current-layer="svg7384"
     inkscape:showpageshadow="2"
     inkscape:deskcolor="#d1d1d1">
    <inkscape:grid
       type="xygrid"
       id="grid118" />
    <inkscape:grid
       type="xygrid"
       id="grid526"
       dotted="true"
       spacingx="0.5"
       spacingy="0.5"
       empspacing="10" />
  </sodipodi:namedview>
  <metadata
     id="metadata20854">
    <rdf:RDF>
      <cc:Work
         rdf:about="">
        <dc:format>image/svg+xml</dc:format>
        <dc:type
           rdf:resource="http://purl.org/dc/dcmitype/StillImage" />
      </cc:Work>
    </rdf:RDF>
  </metadata>
  <defs
     id="defs7386">
    <linearGradient
       id="linearGradient5606"
       inkscape:swatch="solid">
      <stop
         id="stop5608"
         offset="0"
         style="stop-color:#000000;stop-opacity:1;" />
    </linearGradient>
    <linearGradient
       id="linearGradient4526"
       inkscape:swatch="solid">
      <stop
         id="stop4528"
         offset="0"
         style="stop-color:#ffffff;stop-opacity:1;" />
    </linearGradient>
    <linearGradient
       id="linearGradient3600-4"
       inkscape:swatch="gradient">
      <stop
         id="stop3602-7"
         offset="0"
         style="stop-color:#f4f4f4;stop-opacity:1" />
      <stop
         id="stop3604-6"
         offset="1"
         style="stop-color:#dbdbdb;stop-opacity:1" />
    </linearGradient>
  </defs>
  <path
     id="path463"
     style="opacity:1;fill:#808080;stroke:none;stroke-width:3;stroke-linejoin:round;stroke-dasharray:3, 3"
     d="m 10,2 v 3 h 1 v -3 z m -3.3164062,0.8886719 l -0.8671876,0.5 l 1.5,2.5976562 l 0.8671876,-0.5 z m 7.6328122,0 l -1.5,2.5976562 l 0.867188,0.5 l 1.5,-2.5976562 z m -10.9277341,2.9277343 l -0.5,0.8671876 l 2.5976562,1.5 l 0.5,-0.8671876 z m 14.2226561,0 l -2.597656,1.5 l 0.416016,0.7226563 c 0.12835,-0.015553 0.257554,-0.026079 0.388671,-0.03125 l 2.292969,-1.3242187 z m -7.111328,0.1835938 c -2.4852814,0 -4.5,2.0147186 -4.5,4.5 c 0.00266,1.528325 0.7808493,2.950829 2.0664062,3.777344 c 0.066265,-0.348657 0.1825176,-0.680319 0.3359376,-0.988282 c -0.8791314,-0.658188 -1.3983552,-1.690851 -1.4023438,-2.789062 c 0,-1.9329966 1.5670034,-3.5 3.5,-3.5 c 1.231946,6.919e-4 2.372809,0.6490108 3.003906,1.7070312 c 0.284949,-0.1736727 0.588898,-0.317368 0.90625,-0.4296874 c -0.799179,-1.4068789 -2.292134,-2.2764024 -3.910156,-2.2773438 z m -8.5,4 v 1 h 3 v -1 z m 3.4863281,2.816406 l -2.5976562,1.5 l 0.5,0.867188 l 2.5976562,-1.5 z m 1.8300781,2.197266 l -1.5,2.597656 l 0.8671876,0.5 l 1.3828124,-2.394531 c -0.017832,-0.09712 -0.032372,-0.195563 -0.042969,-0.294922 z"
     sodipodi:nodetypes="ccccccccccccccccccccccccccccccccccccccccccccccccccc" />
  <path
     id="rect1606"
     style="fill:#808080;fill-opacity:1;fill-rule:evenodd;stroke-width:0.5;stroke-linecap:square;stroke-linejoin:round"
     d="M 16 9 C 14.177768 9.004 12.588541 10.239074 12.134766 12.003906 C 12.089876 12.001606 12.044946 12.0003 12 12 C 10.343148 12 9 13.343148 9 15 C 9 16.656852 10.343148 18 12 18 L 12.896484 18 C 13.018065 17.732596 13.105469 17.552734 13.105469 17.552734 L 13.382812 17 L 12 17 C 10.895432 17 10 16.104568 10 15 C 10 13.895432 10.895432 13 12 13 C 12.359587 13.000217 12.712465 13.09738 13.021484 13.28125 C 13.009914 13.18789 13.00274 13.094035 13 13 C 13.0028 12.734421 13.04093 12.470393 13.113281 12.214844 C 13.466919 10.910706 14.648771 10.003926 16 10 C 17.656852 10 19 11.343148 19 13 C 18.9989 13.01954 18.997594 13.039084 18.996094 13.058594 C 18.986694 13.456127 18.898434 13.847835 18.736328 14.210938 C 18.967381 14.073455 19.231139 14.000601 19.5 14 C 19.61978 14.000079 19.73912 14.014499 19.855469 14.042969 C 20.527187 14.20682 20.999889 14.808587 21 15.5 C 21 16.328426 20.328426 17 19.5 17 L 17.617188 17 L 17.894531 17.552734 C 17.894531 17.552734 17.983742 17.732843 18.105469 18 L 19.5 18 C 20.880711 18 22 16.880711 22 15.5 C 21.999494 14.310924 21.161524 13.286739 19.996094 13.050781 C 19.997494 13.033861 19.9988 13.01693 20 13 C 20 10.790863 18.209137 9 16 9 z M 14.617188 17 L 14.894531 17.552734 C 14.894531 17.552734 14.983742 17.732843 15.105469 18 L 15.896484 18 C 16.018065 17.732596 16.105469 17.552734 16.105469 17.552734 L 16.382812 17 L 14.617188 17 z " />
  <path
     id="path822"
     style="fill:#808080;fill-opacity:1;fill-rule:evenodd;stroke:none"
     d="M 14 18 C 14 18 13 20.000001 13 21 C 13 21.552284 13.447716 22 14 22 C 14.552284 22 15 21.552284 15 21 C 14.999747 20.98371 14.999143 20.967432 14.998047 20.951172 C 14.967157 19.936483 14 18 14 18 z M 17 18 C 17 18 16 20.000001 16 21 C 16 21.552284 16.447716 22 17 22 C 17.552284 22 18 21.552284 18 21 C 17.999747 20.98371 17.999143 20.967432 17.998047 20.951172 C 17.967157 19.936483 17 18 17 18 z " />
</svg>

<svg height="24" width="24" xmlns="http://www.w3.org/2000/svg"><path style="opacity:1;fill:gray;stroke:none;stroke-width:3;stroke-linejoin:round;stroke-dasharray:3,3" d="M10 2v3h1V2zm-3.316.889-.868.5 1.5 2.597.868-.5zm7.632 0-1.5 2.597.868.5 1.5-2.597zM3.39 5.816l-.5.868 2.597 1.5.5-.868zm14.222 0-2.597 1.5.416.723a4.95 4.95 0 0 1 .388-.031l2.293-1.324zM10.5 6A4.5 4.5 0 0 0 6 10.5a4.5 4.5 0 0 0 2.066 3.777c.067-.348.183-.68.336-.988A3.5 3.5 0 0 1 7 10.5a3.5 3.5 0 0 1 6.504-1.793 4.85 4.85 0 0 1 .906-.43A4.5 4.5 0 0 0 10.5 6zM2 10v1h3v-1zm3.486 2.816-2.597 1.5.5.868 2.597-1.5zm1.83 2.198-1.5 2.597.868.5 1.382-2.394a3.959 3.959 0 0 1-.043-.295z"/><path style="fill:gray;fill-opacity:1;stroke-width:.5;stroke-linecap:square;stroke-linejoin:round" d="M16 9a4 4 0 0 0-3.865 3.004A3 3 0 1 0 12 18h.896c.122-.267.21-.447.21-.447l.277-.553H12a2 2 0 1 1 1.021-3.719A2.996 2.996 0 0 1 13 13c.003-.266.04-.53.113-.785A3 3 0 0 1 16 10a3 3 0 0 1 3 3l-.004.059a3 3 0 0 1-.26 1.152 1.5 1.5 0 0 1 1.12-.168A1.5 1.5 0 0 1 19.5 17h-1.883l.278.553s.089.18.21.447H19.5a2.5 2.5 0 0 0 .496-4.95A4.32 4.32 0 0 0 20 13a4 4 0 0 0-4-4zm-1.383 8 .278.553s.089.18.21.447h.791c.122-.267.21-.447.21-.447l.277-.553h-1.766z"/><path style="fill:gray;fill-opacity:1;stroke:none" d="M14 18s-1 2-1 3a1 1 0 1 0 1.998-.049C14.968 19.936 14 18 14 18zm3 0s-1 2-1 3a1 1 0 1 0 1.998-.049C17.968 19.936 17 18 17 18z"/></svg>
